img/svg/icon9.svg

<svg xmlns="http://www.w3.org/2000/svg" preserveAspectRatio="xMidYMid" width="53" height="53" viewBox="0 0 53 53"><defs><style>.cls-2 { fill: #000000; stroke: #ff4700; stroke-linejoin: round; stroke-width: 1px; opacity: 0.8; fill-opacity: 0; }</style></defs><path d="M48.063 27.92h-6.216c-.81 0-1.437-.652-1.437-1.459s.627-1.436 1.437-1.436h6.216c.81 0 1.437.629 1.437 1.436 0 .807-.627 1.459-1.437 1.459zm-9.69-11.217c-.546.551-1.489.546-2.038 0-.601-.601-.56-1.469 0-2.037l4.388-4.436c.597-.602 1.494-.579 2.037 0 .581.623.561 1.469 0 2.037l-4.387 4.436zm-3.997 17.662c-2.168 2.166-4.807 3.262-7.889 3.262-3.083 0-5.733-1.08-7.915-3.262-2.181-2.176-3.265-4.826-3.265-7.904 0-3.078 1.097-5.716 3.265-7.882 2.194-2.187 4.832-3.284 7.915-3.284 3.082 0 5.708 1.108 7.889 3.284 2.181 2.182 3.291 4.804 3.291 7.882 0 3.078-1.097 5.717-3.291 7.904zm-2.012-13.748c-1.619-1.62-3.578-2.428-5.877-2.428-2.272 0-4.232.808-5.851 2.428-1.619 1.619-2.43 3.573-2.43 5.844 0 2.294.811 4.253 2.43 5.872 1.619 1.615 3.579 2.428 5.851 2.428 2.299 0 4.258-.813 5.877-2.428 1.62-1.619 2.43-3.578 2.43-5.872 0-2.271-.81-4.225-2.43-5.844zm-5.877-7.983c-.81 0-1.436-.629-1.436-1.436v-6.262c0-.807.626-1.436 1.436-1.436.81 0 1.463.629 1.463 1.436v6.262c0 .807-.653 1.436-1.463 1.436zm-10.788 4.487c-.392 0-.732-.134-1.019-.418l-4.44-4.436c-.563-.562-.601-1.436 0-2.037.522-.518 1.515-.518 2.037 0l4.441 4.436c.522.523.522 1.436 0 2.037-.34.284-.68.418-1.019.418zm-3.056 9.34c0 .807-.627 1.459-1.437 1.459h-6.269c-.81 0-1.437-.652-1.437-1.459s.627-1.436 1.437-1.436h6.269c.81 0 1.437.629 1.437 1.436zm1.985 9.836c.601-.601 1.489-.601 2.09 0 .522.523.563 1.475 0 2.037l-4.441 4.436c-.548.546-1.489.546-2.037 0-.601-.601-.601-1.491 0-2.087l4.388-4.386zm11.859 4.069c.81 0 1.463.629 1.463 1.436v6.212c0 .807-.653 1.486-1.463 1.486s-1.436-.679-1.436-1.436v-6.262c0-.807.626-1.436 1.436-1.436zm11.886-4.069l4.387 4.386c.601.596.602 1.514 0 2.032-.443.551-1.593.551-2.037 0l-4.388-4.381c-.563-.562-.601-1.514 0-2.037.522-.601 1.436-.601 2.038 0z" id="path-1" class="cls-2" fill-rule="evenodd"/></svg>

<svg xmlns="http://www.w3.org/2000/svg" xmlns:xlink="http://www.w3.org/1999/xlink" preserveAspectRatio="xMidYMid" width="53" height="53" viewBox="0 0 53 53">
  <defs>
    <style>

      .cls-2 {
        fill: #000000;
        stroke: #ff4700;
        stroke-linejoin: round;
        stroke-width: 1px;
        opacity: 0.8;
        fill-opacity: 0;
      }
    </style>
  </defs>
  <path d="M48.063,27.920 C48.063,27.920 41.847,27.920 41.847,27.920 C41.037,27.920 40.410,27.268 40.410,26.461 C40.410,25.654 41.037,25.025 41.847,25.025 C41.847,25.025 48.063,25.025 48.063,25.025 C48.873,25.025 49.500,25.654 49.500,26.461 C49.500,27.268 48.873,27.920 48.063,27.920 ZM38.373,16.703 C37.827,17.254 36.884,17.249 36.335,16.703 C35.734,16.102 35.775,15.234 36.335,14.666 C36.335,14.666 40.723,10.230 40.723,10.230 C41.320,9.628 42.217,9.651 42.760,10.230 C43.341,10.853 43.321,11.699 42.760,12.267 C42.760,12.267 38.373,16.703 38.373,16.703 ZM34.376,34.365 C32.208,36.531 29.569,37.627 26.487,37.627 C23.404,37.627 20.754,36.547 18.572,34.365 C16.391,32.189 15.307,29.539 15.307,26.461 C15.307,23.383 16.404,20.745 18.572,18.579 C20.766,16.392 23.404,15.295 26.487,15.295 C29.569,15.295 32.195,16.403 34.376,18.579 C36.557,20.761 37.667,23.383 37.667,26.461 C37.667,29.539 36.570,32.178 34.376,34.365 ZM32.364,20.617 C30.745,18.997 28.786,18.189 26.487,18.189 C24.215,18.189 22.255,18.997 20.636,20.617 C19.017,22.236 18.206,24.190 18.206,26.461 C18.206,28.755 19.017,30.714 20.636,32.333 C22.255,33.948 24.215,34.761 26.487,34.761 C28.786,34.761 30.745,33.948 32.364,32.333 C33.984,30.714 34.794,28.755 34.794,26.461 C34.794,24.190 33.984,22.236 32.364,20.617 ZM26.487,12.634 C25.677,12.634 25.051,12.005 25.051,11.198 C25.051,11.198 25.051,4.936 25.051,4.936 C25.051,4.129 25.677,3.500 26.487,3.500 C27.297,3.500 27.950,4.129 27.950,4.936 C27.950,4.936 27.950,11.198 27.950,11.198 C27.950,12.005 27.297,12.634 26.487,12.634 ZM15.699,17.121 C15.307,17.121 14.967,16.987 14.680,16.703 C14.680,16.703 10.240,12.267 10.240,12.267 C9.677,11.705 9.639,10.831 10.240,10.230 C10.762,9.712 11.755,9.712 12.277,10.230 C12.277,10.230 16.718,14.666 16.718,14.666 C17.240,15.189 17.240,16.102 16.718,16.703 C16.378,16.987 16.038,17.121 15.699,17.121 ZM12.643,26.461 C12.643,27.268 12.016,27.920 11.206,27.920 C11.206,27.920 4.937,27.920 4.937,27.920 C4.127,27.920 3.500,27.268 3.500,26.461 C3.500,25.654 4.127,25.025 4.937,25.025 C4.937,25.025 11.206,25.025 11.206,25.025 C12.016,25.025 12.643,25.654 12.643,26.461 ZM14.628,36.297 C15.229,35.696 16.117,35.696 16.718,36.297 C17.240,36.820 17.281,37.772 16.718,38.334 C16.718,38.334 12.277,42.770 12.277,42.770 C11.729,43.316 10.788,43.316 10.240,42.770 C9.639,42.169 9.639,41.279 10.240,40.683 C10.240,40.683 14.628,36.297 14.628,36.297 ZM26.487,40.366 C27.297,40.366 27.950,40.995 27.950,41.802 C27.950,41.802 27.950,48.014 27.950,48.014 C27.950,48.821 27.297,49.500 26.487,49.500 C25.677,49.500 25.051,48.821 25.051,48.064 C25.051,48.064 25.051,41.802 25.051,41.802 C25.051,40.995 25.677,40.366 26.487,40.366 ZM38.373,36.297 C38.373,36.297 42.760,40.683 42.760,40.683 C43.361,41.279 43.362,42.197 42.760,42.715 C42.317,43.266 41.167,43.266 40.723,42.715 C40.723,42.715 36.335,38.334 36.335,38.334 C35.772,37.772 35.734,36.820 36.335,36.297 C36.857,35.696 37.771,35.696 38.373,36.297 Z" id="path-1" class="cls-2" fill-rule="evenodd"/>
</svg>
